public/images/shop.svg

<?xml version="1.0" encoding="UTF-8"?>
<svg width="490px" height="428px" viewBox="0 0 490 428" version="1.1" xmlns="http://www.w3.org/2000/svg" xmlns:xlink="http://www.w3.org/1999/xlink">
    <g stroke="none" stroke-width="1" fill="#007cc3" fill-rule="evenodd">
        <g fill="#007cc3" fill-rule="nonzero">
            <path d="M347.7,232.75 C365.9,232.75 380.7,247.55 380.7,265.75 L380.7,316.75 C380.7,334.95 365.9,349.75 347.7,349.75 L281.2,349.75 C263,349.75 248.2,334.95 248.2,316.75 L248.2,265.75 C248.2,247.55 263,232.75 281.2,232.75 L347.7,232.75 Z M356.7,316.75 L356.7,265.75 C356.7,260.85 352.7,256.75 347.7,256.75 L281.2,256.75 C276.3,256.75 272.2,260.75 272.2,265.75 L272.2,316.75 C272.2,321.65 276.2,325.75 281.2,325.75 L347.7,325.75 C352.6,325.75 356.7,321.75 356.7,316.75 Z M489.4,140.05 C489.4,168.85 472,193.55 447.2,204.45 C447.3,204.85 447.3,205.25 447.3,205.75 L447.3,415.35 C447.3,421.95 441.9,427.35 435.3,427.35 L213.9,427.35 C213.8,427.35 213.7,427.35 213.6,427.35 L120.6,427.35 C120.5,427.35 120.4,427.35 120.3,427.35 L54,427.35 C47.4,427.35 42,421.95 42,415.35 L42,204.25 C17.3,193.35 0,168.75 0,140.05 C0,137.95 0.6,135.95 1.6,134.15 L74.3,6.15 C76.4,2.35 80.4,0.05 84.7,0.05 L404.6,0.05 C408.9,0.05 412.9,2.45 415,6.15 L487.8,134.15 C488.9,135.95 489.4,137.95 489.4,140.05 Z M91.7,24.15 L34.9,124.25 L454.5,124.25 L397.6,24.15 L91.7,24.15 Z M348.3,148.15 L257.5,148.15 C261.3,169.75 280.2,186.15 302.9,186.15 C325.6,186.15 344.5,169.75 348.3,148.15 Z M232,148.15 L141.1,148.15 C145,169.75 163.9,186.15 186.6,186.15 C209.3,186.15 228.2,169.75 232,148.15 Z M24.8,148.15 C28.6,169.75 47.5,186.25 70.2,186.15 C92.9,186.15 111.9,169.75 115.7,148.15 L24.8,148.15 Z M201.6,403.35 L201.7,403.35 L201.7,273.85 C201.7,264.35 194,256.75 184.6,256.75 L149.7,256.75 C140.2,256.75 132.6,264.45 132.6,273.85 L132.6,403.35 L201.6,403.35 Z M423.3,403.35 L423.3,210.15 C421.9,210.15 420.6,210.25 419.2,210.25 C395,210.25 373.6,197.95 361,179.25 C348.4,197.95 327.1,210.25 302.9,210.25 C278.8,210.25 257.4,197.95 244.8,179.25 C232.1,197.95 210.8,210.25 186.6,210.25 C162.4,210.25 141,197.95 128.4,179.25 C115.8,197.95 94.4,210.25 70.2,210.25 C68.8,210.25 67.4,210.25 66,210.15 L66,403.45 L108.5,403.45 L108.5,273.85 C108.5,251.15 127,232.75 149.6,232.75 L184.5,232.75 C207.2,232.75 225.6,251.25 225.6,273.85 L225.6,403.35 L423.3,403.35 Z M419.2,186.25 C441.9,186.25 460.8,169.75 464.7,148.25 L373.8,148.25 C377.6,169.85 396.5,186.25 419.2,186.25 Z" id="Combined-Shape"></path>
        </g>
    </g>
</svg>

<svg width="490" height="428" viewBox="0 0 500 500" xmlns="http://www.w3.org/2000/svg">
    <path d="M347.7 232.75c18.2 0 33 14.8 33 33v51c0 18.2-14.8 33-33 33h-66.5c-18.2 0-33-14.8-33-33v-51c0-18.2 14.8-33 33-33h66.5zm9 84v-51c0-4.9-4-9-9-9h-66.5c-4.9 0-9 4-9 9v51c0 4.9 4 9 9 9h66.5c4.9 0 9-4 9-9zm132.7-176.7c0 28.8-17.4 53.5-42.2 64.4.1.4.1.8.1 1.3v209.6c0 6.6-5.4 12-12 12H54c-6.6 0-12-5.4-12-12v-211.1c-24.7-10.9-42-35.5-42-64.2 0-2.1.6-4.1 1.6-5.9l72.7-128c2.1-3.8 6.1-6.1 10.4-6.1h319.9c4.3 0 8.3 2.4 10.4 6.1l72.8 128c1.1 1.8 1.6 3.8 1.6 5.9zM91.7 24.15l-56.8 100.1h419.6l-56.9-100.1H91.7zm256.6 124h-90.8c3.8 21.6 22.7 38 45.4 38s41.6-16.4 45.4-38zm-116.3 0h-90.9c3.9 21.6 22.8 38 45.5 38s41.6-16.4 45.4-38zm-207.2 0c3.8 21.6 22.7 38.1 45.4 38 22.7 0 41.7-16.4 45.5-38H24.8zm176.8 255.2h.1v-129.5c0-9.5-7.7-17.1-17.1-17.1h-34.9c-9.5 0-17.1 7.7-17.1 17.1v129.5h69zm221.7 0v-193.2c-1.4 0-2.7.1-4.1.1-24.2 0-45.6-12.3-58.2-31-12.6 18.7-33.9 31-58.1 31-24.1 0-45.5-12.3-58.1-31-12.7 18.7-34 31-58.2 31-24.2 0-45.6-12.3-58.2-31-12.6 18.7-34 31-58.2 31-1.4 0-2.8 0-4.2-.1v193.3h42.5v-129.6c0-22.7 18.5-41.1 41.1-41.1h34.9c22.7 0 41.1 18.5 41.1 41.1v129.5h197.7zm-4.1-217.1c22.7 0 41.6-16.5 45.5-38h-90.9c3.8 21.6 22.7 38 45.4 38z" fill-rule="nonzero" fill="#007cc3"/>
</svg>
